X:1
T:DOWN THE KASANKA
M:2/4
Q:1/4=120
K:A
c4c2c2|B2B2A2A2|A2A2G4|c4F4|F4E4|e2d2c4|A4A4|
-A4c4|c2c2B4|-B4A4|A2A2G4|c4A4|A4B4|e2d2c4|
A4A7/2||
